X: 36834
T: Shiny Side
R: slip jig
M: 9/8
K: Gmajor
|:ded B2G AGG|ded B2G ABc|ded B2G AGG|[M:6/8] c2B AGG:|
M:9/8
|:~A3 AGA B2G|~c3 cde dBG|~A3 AGA B2G|[M:6/8] c2B AGG:|

